brandFactory_export/1.Light/Escudo _1Light.svg

<?xml version="1.0" encoding="UTF-8"?>
<svg width="24px" height="24px" viewBox="0 0 24 24" version="1.1" xmlns="http://www.w3.org/2000/svg" xmlns:xlink="http://www.w3.org/1999/xlink">
    <title>1.Light/Escudo _1Light</title>
    <g id="Symbols" stroke="none" stroke-width="1" fill="none" fill-rule="evenodd">
        <g id="1.Light/Escudo-_1Light" fill="#5CB615" fill-rule="nonzero">
            <path d="M3.01176471,4.18151261 C3.01848739,6.0605042 3.07563025,12.1109244 3.55294118,14.8504202 C4.14789916,18.302521 11.0420168,21.9092437 12.3495798,22.5613445 C13.6571429,21.9058824 20.5613445,18.2991597 21.1563025,14.8504202 C21.6235294,12.1042017 21.6806723,6.04033613 21.687395,4.17142857 C19.5058824,4.34285714 18.2285714,3.48571429 16.9815126,2.65546218 C15.7714286,1.84537815 14.5142857,1.00840336 12.3529412,1.00504202 L12.3462185,1.00504202 C10.1815126,1.00504202 8.92773109,1.84201681 7.71428571,2.65546218 C6.45378151,3.49579832 5.15294118,4.35966387 3.01176471,4.18151261 Z M12.3495798,23.6235294 C12.2756303,23.6235294 12.2016807,23.6067227 12.1344538,23.5764706 C11.7781513,23.405042 3.31428571,19.3243697 2.57142857,15.0252101 C1.98991597,11.687395 2.0133135,3.9394958 2.0133135,3.61008403 C2.01008403,3.33445378 2.23193277,3.11260504 2.50756303,3.1092437 C2.54789916,3.1092437 2.59159664,3.11260504 2.63193277,3.12268908 C4.71932773,3.45546218 5.85210084,2.69579832 7.16638655,1.81848739 C8.44033613,0.964705882 9.88235294,0 12.3462185,0 L12.3563025,0 C14.8201681,0.00336134454 16.2621849,0.968067227 17.5327731,1.81848739 C18.8436975,2.69579832 19.9731092,3.45210084 22.0739496,3.12605042 C22.2218487,3.10252101 22.3731092,3.14285714 22.4907563,3.23697479 C22.605042,3.32773109 22.6756303,3.46554622 22.6858029,3.61008403 C22.6858029,3.9394958 22.7058824,11.687395 22.1378151,15.0252101 C21.3983193,19.3277311 12.9243697,23.405042 12.5647059,23.5764706 C12.4941176,23.6067227 12.4235294,23.6235294 12.3495798,23.6235294 Z" id="Escudo-_1Light"></path>
        </g>
    </g>
</svg>

<svg width="24" height="24" viewBox="0 0 24 24" xmlns="http://www.w3.org/2000/svg"><path d="M3.012 4.182c.006 1.879.064 7.929.54 10.668.596 3.453 7.49 7.06 8.798 7.711 1.307-.655 8.211-4.262 8.806-7.71.468-2.747.525-8.81.531-10.68-2.181.172-3.458-.685-4.705-1.516-1.21-.81-2.468-1.647-4.63-1.65h-.006c-2.164 0-3.418.837-4.632 1.65-1.26.84-2.561 1.705-4.702 1.527zm9.338 19.442a.527.527 0 01-.216-.048c-.356-.171-8.82-4.252-9.563-8.55-.581-3.339-.558-11.087-.558-11.416a.497.497 0 01.619-.487c2.087.332 3.22-.427 4.534-1.305C8.44.965 9.882 0 12.346 0h.01c2.464.003 3.906.968 5.177 1.818 1.31.878 2.44 1.634 4.54 1.308a.526.526 0 01.612.484c0 .33.02 8.077-.547 11.415-.74 4.303-9.214 8.38-9.573 8.551a.54.54 0 01-.215.048z" fill="#5CB615" fill-rule="nonzero"/></svg>
